X: 5666
T: By Golly
R: jig
M: 6/8
K: Amixolydian
dcA G(3(EFG)|Add d2e|dcA G(3(EFG)|AGE E2c|
dcA G(3(EFG)|A2d dAd|fed fed|1 cec Ace:|2 cec A(3(Bcd)||
efg efg|e/f/ge dgd|efg aba|age edd|
efg efg|e/f/ge cde|fed fed|cec A(3(Bcd)|
efg efg|e/f/ge dgd|efg a3|age edd|
efg a2g|ege d2g|fed fed|cec Ace||

